openmetadata-ui/src/main/resources/ui/src/assets/svg/ic-growth-arrow.svg

<svg width="20" height="15" viewBox="0 0 20 15" fill="none" xmlns="http://www.w3.org/2000/svg">
<path fill-rule="evenodd" clip-rule="evenodd" d="M1.35384 10.9485C1.25619 11.057 1.12818 11.1111 1.00017 11.1111C0.872162 11.1111 0.744154 11.057 0.646849 10.9481C0.451498 10.7311 0.451498 10.3796 0.646849 10.1626L4.64685 5.71814C4.84216 5.50108 5.15849 5.50108 5.35384 5.71814L9.01818 9.78962L17.6969 1.11111H16.0002C15.7238 1.11111 15.5002 0.862581 15.5002 0.555549C15.5002 0.248518 15.7238 -6.19888e-06 16.0002 -6.19888e-06H19.0002C19.2765 -6.19888e-06 19.5002 0.248518 19.5002 0.555549V3.88888C19.5002 4.19591 19.2765 4.44444 19.0002 4.44444C18.7238 4.44444 18.5002 4.19591 18.5002 3.88888V1.80334L9.33451 10.9689C9.13685 11.1641 8.83451 11.1574 8.6465 10.9481L5.00017 6.89665L1.35384 10.9485ZM0.5 13.8889H19.5C19.7763 13.8889 20 14.1374 20 14.4444C20 14.7515 19.7763 15 19.5 15H0.5C0.223672 15 0 14.7515 0 14.4444C0 14.1374 0.223672 13.8889 0.5 13.8889Z" fill="#28A745"/>
</svg>

<svg xmlns="http://www.w3.org/2000/svg" width="20" height="15" fill="none"><path fill="#28A745" fill-rule="evenodd" d="M1.354 10.948a.474.474 0 0 1-.354.163.472.472 0 0 1-.353-.163.6.6 0 0 1 0-.785l4-4.445a.465.465 0 0 1 .707 0L9.018 9.79l8.679-8.679H16c-.276 0-.5-.248-.5-.555 0-.307.224-.556.5-.556h3c.276 0 .5.249.5.556v3.333c0 .307-.224.555-.5.555s-.5-.248-.5-.555V1.803L9.335 10.97a.466.466 0 0 1-.689-.02L5 6.896l-3.646 4.051ZM.5 13.888h19c.276 0 .5.25.5.556 0 .307-.224.556-.5.556H.5c-.276 0-.5-.248-.5-.556 0-.307.224-.555.5-.555Z" clip-rule="evenodd"/></svg>
